images/logo/logo2.svg

<svg width="263" height="43" viewBox="0 0 263 43" fill="none" xmlns="http://www.w3.org/2000/svg">
<path d="M12.8397 8.5C19.5947 8.5 24.7397 13.82 24.7397 20.75C24.7397 27.68 19.5947 33 12.8397 33H3.03974V8.5H12.8397ZM12.8397 27.61C16.6897 27.61 19.3497 24.95 19.3497 20.75C19.3497 16.55 16.6897 13.89 12.8397 13.89H8.63974V27.61H12.8397ZM29.6384 13.96C27.9234 13.96 26.4884 12.525 26.4884 10.81C26.4884 9.095 27.9234 7.66 29.6384 7.66C31.3534 7.66 32.7884 9.095 32.7884 10.81C32.7884 12.525 31.3534 13.96 29.6384 13.96ZM27.0134 33V15.5H32.2634V33H27.0134ZM48.1102 15.5H53.3602V33H48.1102V31.355C46.9552 32.685 45.2402 33.49 42.8952 33.49C38.3102 33.49 34.5302 29.465 34.5302 24.25C34.5302 19.035 38.3102 15.01 42.8952 15.01C45.2402 15.01 46.9552 15.815 48.1102 17.145V15.5ZM43.9452 28.52C46.3602 28.52 48.1102 26.875 48.1102 24.25C48.1102 21.625 46.3602 19.98 43.9452 19.98C41.5302 19.98 39.7802 21.625 39.7802 24.25C39.7802 26.875 41.5302 28.52 43.9452 28.52ZM66.7668 15.01C70.3018 15.01 73.3118 17.53 73.3118 22.255V33H68.0618V23.025C68.0618 20.855 66.6968 19.84 65.0168 19.84C63.0918 19.84 61.7618 20.96 61.7618 23.445V33H56.5118V15.5H61.7618V17.145C62.7068 15.85 64.4568 15.01 66.7668 15.01ZM86.4721 15.01C90.0071 15.01 93.0171 17.53 93.0171 22.255V33H87.7671V23.025C87.7671 20.855 86.4021 19.84 84.7221 19.84C82.7971 19.84 81.4671 20.96 81.4671 23.445V33H76.2171V15.5H81.4671V17.145C82.4121 15.85 84.1621 15.01 86.4721 15.01ZM100.612 26.35C101.277 28.17 102.887 28.8 104.812 28.8C106.247 28.8 107.472 28.24 108.172 27.47L112.372 29.885C110.657 32.265 108.067 33.49 104.742 33.49C98.7574 33.49 95.0474 29.465 95.0474 24.25C95.0474 19.035 98.8274 15.01 104.357 15.01C109.467 15.01 113.247 18.965 113.247 24.25C113.247 24.985 113.177 25.685 113.037 26.35H100.612ZM100.507 22.43H108.032C107.472 20.4 105.897 19.665 104.322 19.665C102.327 19.665 100.997 20.645 100.507 22.43ZM132.185 33.455C129.898 33.455 127.938 32.9183 126.305 31.845C124.695 30.7717 123.563 29.3017 122.91 27.435L125.71 25.825C126.667 28.7883 128.848 30.27 132.255 30.27C133.935 30.27 135.218 29.9317 136.105 29.255C136.992 28.555 137.435 27.6333 137.435 26.49C137.435 25.3233 136.992 24.4483 136.105 23.865C135.218 23.2817 133.737 22.6633 131.66 22.01C130.633 21.6833 129.852 21.4267 129.315 21.24C128.778 21.03 128.102 20.7267 127.285 20.33C126.492 19.91 125.897 19.49 125.5 19.07C125.103 18.6267 124.742 18.055 124.415 17.355C124.112 16.655 123.96 15.8617 123.96 14.975C123.96 12.8517 124.707 11.1717 126.2 9.935C127.693 8.675 129.513 8.045 131.66 8.045C133.597 8.045 135.277 8.535 136.7 9.515C138.147 10.495 139.232 11.79 139.955 13.4L137.225 14.975C136.175 12.455 134.32 11.195 131.66 11.195C130.33 11.195 129.257 11.5217 128.44 12.175C127.623 12.8283 127.215 13.715 127.215 14.835C127.215 15.9083 127.6 16.725 128.37 17.285C129.14 17.845 130.47 18.4283 132.36 19.035C133.037 19.245 133.515 19.3967 133.795 19.49C134.075 19.5833 134.507 19.7467 135.09 19.98C135.697 20.2133 136.14 20.4 136.42 20.54C136.7 20.68 137.073 20.8783 137.54 21.135C138.03 21.3917 138.392 21.6367 138.625 21.87C138.858 22.1033 139.127 22.395 139.43 22.745C139.757 23.0717 139.99 23.41 140.13 23.76C140.27 24.11 140.387 24.5183 140.48 24.985C140.597 25.4283 140.655 25.9067 140.655 26.42C140.655 28.5667 139.873 30.2817 138.31 31.565C136.747 32.825 134.705 33.455 132.185 33.455ZM158.601 8.5V11.58H151.356V33H148.136V11.58H140.926V8.5H158.601ZM176.627 31.11C174.924 32.6733 172.719 33.455 170.012 33.455C167.305 33.455 165.089 32.6733 163.362 31.11C161.659 29.5233 160.807 27.4117 160.807 24.775V8.5H164.062V24.635C164.062 26.3617 164.575 27.7383 165.602 28.765C166.629 29.7683 168.099 30.27 170.012 30.27C171.925 30.27 173.395 29.7683 174.422 28.765C175.449 27.7383 175.962 26.3617 175.962 24.635V8.5H179.182V24.775C179.182 27.4117 178.33 29.5233 176.627 31.11ZM193.014 8.5C196.351 8.5 199.116 9.69 201.309 12.07C203.526 14.4267 204.634 17.32 204.634 20.75C204.634 24.18 203.526 27.085 201.309 29.465C199.116 31.8217 196.351 33 193.014 33H183.459V8.5H193.014ZM193.014 29.92C195.511 29.92 197.553 29.045 199.139 27.295C200.726 25.545 201.519 23.3633 201.519 20.75C201.519 18.1367 200.726 15.955 199.139 14.205C197.553 12.455 195.511 11.58 193.014 11.58H186.714V29.92H193.014ZM207.881 8.5H211.136V33H207.881V8.5ZM236.062 29.745C233.612 32.2183 230.614 33.455 227.067 33.455C223.52 33.455 220.522 32.2183 218.072 29.745C215.622 27.2717 214.397 24.2733 214.397 20.75C214.397 17.2033 215.622 14.205 218.072 11.755C220.522 9.28166 223.52 8.045 227.067 8.045C230.614 8.045 233.612 9.28166 236.062 11.755C238.535 14.205 239.772 17.2033 239.772 20.75C239.772 24.2733 238.535 27.2717 236.062 29.745ZM220.312 27.54C222.132 29.36 224.384 30.27 227.067 30.27C229.75 30.27 231.99 29.36 233.787 27.54C235.607 25.6967 236.517 23.4333 236.517 20.75C236.517 18.0433 235.607 15.78 233.787 13.96C231.99 12.1167 229.75 11.195 227.067 11.195C224.384 11.195 222.132 12.1167 220.312 13.96C218.515 15.78 217.617 18.0433 217.617 20.75C217.617 23.4333 218.515 25.6967 220.312 27.54Z" fill="black"/>
<path d="M252.008 5.225C257.008 5.225 261.058 9.25 261.058 14.25C261.058 19.25 257.008 23.275 252.008 23.275C247.008 23.275 242.958 19.25 242.958 14.25C242.958 9.25 247.008 5.225 252.008 5.225ZM252.008 22.675C256.633 22.675 260.383 18.925 260.383 14.25C260.383 9.575 256.633 5.825 252.008 5.825C247.383 5.825 243.608 9.575 243.608 14.25C243.608 18.925 247.383 22.675 252.008 22.675ZM255.508 12.525C255.508 13.8 254.908 14.775 253.633 15.175L255.733 18.875H254.408L252.458 15.4H252.108H250.533V18.875H249.333V9.625H252.108C254.433 9.625 255.508 11.05 255.508 12.525ZM250.533 14.25H252.158C253.633 14.25 254.308 13.575 254.308 12.525C254.308 11.5 253.583 10.775 252.158 10.775H250.533V14.25Z" fill="black"/>
</svg>

<svg width="263" height="43" fill="none" xmlns="http://www.w3.org/2000/svg"><path d="M12.84 8.5c6.755 0 11.9 5.32 11.9 12.25S19.595 33 12.84 33h-9.8V8.5h9.8Zm0 19.11c3.85 0 6.51-2.66 6.51-6.86s-2.66-6.86-6.51-6.86h-4.2v13.72h4.2Zm16.798-13.65c-1.715 0-3.15-1.435-3.15-3.15 0-1.715 1.435-3.15 3.15-3.15 1.715 0 3.15 1.435 3.15 3.15 0 1.715-1.435 3.15-3.15 3.15ZM27.013 33V15.5h5.25V33h-5.25ZM48.11 15.5h5.25V33h-5.25v-1.645c-1.155 1.33-2.87 2.135-5.215 2.135-4.585 0-8.365-4.025-8.365-9.24s3.78-9.24 8.365-9.24c2.345 0 4.06.805 5.215 2.135V15.5Zm-4.165 13.02c2.415 0 4.165-1.645 4.165-4.27 0-2.625-1.75-4.27-4.165-4.27s-4.165 1.645-4.165 4.27c0 2.625 1.75 4.27 4.165 4.27Zm22.822-13.51c3.535 0 6.545 2.52 6.545 7.245V33h-5.25v-9.975c0-2.17-1.365-3.185-3.045-3.185-1.925 0-3.255 1.12-3.255 3.605V33h-5.25V15.5h5.25v1.645c.945-1.295 2.695-2.135 5.005-2.135Zm19.705 0c3.535 0 6.545 2.52 6.545 7.245V33h-5.25v-9.975c0-2.17-1.365-3.185-3.045-3.185-1.925 0-3.255 1.12-3.255 3.605V33h-5.25V15.5h5.25v1.645c.945-1.295 2.695-2.135 5.005-2.135Zm14.14 11.34c.665 1.82 2.275 2.45 4.2 2.45 1.435 0 2.66-.56 3.36-1.33l4.2 2.415c-1.715 2.38-4.305 3.605-7.63 3.605-5.985 0-9.695-4.025-9.695-9.24s3.78-9.24 9.31-9.24c5.11 0 8.89 3.955 8.89 9.24 0 .735-.07 1.435-.21 2.1h-12.425Zm-.105-3.92h7.525c-.56-2.03-2.135-2.765-3.71-2.765-1.995 0-3.325.98-3.815 2.765Zm31.678 11.025c-2.287 0-4.247-.537-5.88-1.61-1.61-1.073-2.742-2.543-3.395-4.41l2.8-1.61c.957 2.963 3.138 4.445 6.545 4.445 1.68 0 2.963-.338 3.85-1.015.887-.7 1.33-1.622 1.33-2.765 0-1.167-.443-2.042-1.33-2.625-.887-.583-2.368-1.202-4.445-1.855a99.84 99.84 0 0 1-2.345-.77 29.189 29.189 0 0 1-2.03-.91c-.793-.42-1.388-.84-1.785-1.26-.397-.443-.758-1.015-1.085-1.715-.303-.7-.455-1.493-.455-2.38 0-2.123.747-3.803 2.24-5.04 1.493-1.26 3.313-1.89 5.46-1.89 1.937 0 3.617.49 5.04 1.47a9.103 9.103 0 0 1 3.255 3.885l-2.73 1.575c-1.05-2.52-2.905-3.78-5.565-3.78-1.33 0-2.403.327-3.22.98-.817.653-1.225 1.54-1.225 2.66 0 1.073.385 1.89 1.155 2.45.77.56 2.1 1.143 3.99 1.75.677.21 1.155.362 1.435.455.28.093.712.257 1.295.49.607.233 1.05.42 1.33.56.28.14.653.338 1.12.595.49.257.852.502 1.085.735.233.233.502.525.805.875.327.327.56.665.7 1.015.14.35.257.758.35 1.225.117.443.175.922.175 1.435 0 2.147-.782 3.862-2.345 5.145-1.563 1.26-3.605 1.89-6.125 1.89ZM158.601 8.5v3.08h-7.245V33h-3.22V11.58h-7.21V8.5h17.675Zm18.026 22.61c-1.703 1.563-3.908 2.345-6.615 2.345-2.707 0-4.923-.782-6.65-2.345-1.703-1.587-2.555-3.698-2.555-6.335V8.5h3.255v16.135c0 1.727.513 3.103 1.54 4.13 1.027 1.003 2.497 1.505 4.41 1.505 1.913 0 3.383-.502 4.41-1.505 1.027-1.027 1.54-2.403 1.54-4.13V8.5h3.22v16.275c0 2.637-.852 4.748-2.555 6.335ZM193.014 8.5c3.337 0 6.102 1.19 8.295 3.57 2.217 2.357 3.325 5.25 3.325 8.68 0 3.43-1.108 6.335-3.325 8.715-2.193 2.357-4.958 3.535-8.295 3.535h-9.555V8.5h9.555Zm0 21.42c2.497 0 4.539-.875 6.125-2.625 1.587-1.75 2.38-3.932 2.38-6.545s-.793-4.795-2.38-6.545c-1.586-1.75-3.628-2.625-6.125-2.625h-6.3v18.34h6.3ZM207.881 8.5h3.255V33h-3.255V8.5Zm28.181 21.245c-2.45 2.473-5.448 3.71-8.995 3.71-3.547 0-6.545-1.237-8.995-3.71-2.45-2.473-3.675-5.472-3.675-8.995 0-3.547 1.225-6.545 3.675-8.995 2.45-2.473 5.448-3.71 8.995-3.71 3.547 0 6.545 1.237 8.995 3.71 2.473 2.45 3.71 5.448 3.71 8.995 0 3.523-1.237 6.522-3.71 8.995Zm-15.75-2.205c1.82 1.82 4.072 2.73 6.755 2.73s4.923-.91 6.72-2.73c1.82-1.843 2.73-4.107 2.73-6.79 0-2.707-.91-4.97-2.73-6.79-1.797-1.843-4.037-2.765-6.72-2.765s-4.935.922-6.755 2.765c-1.797 1.82-2.695 4.083-2.695 6.79 0 2.683.898 4.947 2.695 6.79Zm31.696-22.315c5 0 9.05 4.025 9.05 9.025s-4.05 9.025-9.05 9.025c-5 0-9.05-4.025-9.05-9.025s4.05-9.025 9.05-9.025Zm0 17.45c4.625 0 8.375-3.75 8.375-8.425 0-4.675-3.75-8.425-8.375-8.425s-8.4 3.75-8.4 8.425c0 4.675 3.775 8.425 8.4 8.425Zm3.5-10.15c0 1.275-.6 2.25-1.875 2.65l2.1 3.7h-1.325l-1.95-3.475h-1.925v3.475h-1.2v-9.25h2.775c2.325 0 3.4 1.425 3.4 2.9Zm-4.975 1.725h1.625c1.475 0 2.15-.675 2.15-1.725 0-1.025-.725-1.75-2.15-1.75h-1.625v3.475Z" fill="#000"/></svg>
